Yaru++/apps/scalable/clock-app.svg

<svg height="256" width="256" xmlns="http://www.w3.org/2000/svg" xmlns:xlink="http://www.w3.org/1999/xlink">
  <filter id="filter4278" color-interpolation-filters="sRGB" height="1.024" width="1.024" x="-.01" y="-.01">
    <feGaussianBlur stdDeviation="1.384"/>
  </filter>
  <linearGradient id="linearGradient4290" gradientUnits="userSpaceOnUse" x1="226.84" x2="406.448" y1="429.516" y2="146.703">
    <stop offset="0" stop-opacity="0"/>
    <stop offset=".496"/>
    <stop offset="1" stop-opacity="0"/>
  </linearGradient>
  <filter id="filter4300" color-interpolation-filters="sRGB" height="1.196" width="1.188" x="-.09" y="-.1">
    <feGaussianBlur stdDeviation="11.069"/>
  </filter>
  <linearGradient id="linearGradient11065" gradientUnits="userSpaceOnUse" x1="80.752004" x2="176.752004" y1="11.248014" y2="235.248014">
    <stop offset="0" stop-color="#666"/>
    <stop offset="1" stop-color="#666"/>
  </linearGradient>
  <filter id="filter11191" color-interpolation-filters="sRGB" height="1.024" width="1.024" x="-.01" y="-.01">
    <feGaussianBlur stdDeviation="1.12"/>
  </filter>
  <filter id="filter11210" color-interpolation-filters="sRGB" height="1.096" width="1.096" x="-.05" y="-.05">
    <feGaussianBlur stdDeviation="4.48"/>
  </filter>
  <circle cx="128.752" cy="127.248" filter="url(#filter11210)" opacity=".1" r="112"/>
  <circle cx="128.752" cy="125.248" filter="url(#filter11191)" opacity=".1" r="112"/>
  <circle cx="128.752" cy="123.248" opacity=".1" r="114"/>
  <circle cx="128.752" cy="123.248" fill="url(#linearGradient11065)" r="112"/>
  <g enable-background="new" transform="translate(-23.247996 -32.751975)">
    <path d="m418.56445 154.90625-150.71093 87.01367a20 20 0 0 0 -5.85352-2.99414v-20.92578h-12v20.94531a20 20 0 0 0 -5.85352 2.97461l-91.92382-53.07422-8 13.85742 91.91211 53.06641a20 20 0 0 0 -.13477 2.23047 20 20 0 0 0 14 19.07422v148.92578h12v-148.94531a20 20 0 0 0 14-19.05469 20 20 0 0 0 -.14844-2.22266l150.71289-87.01562z" filter="url(#filter4278)" opacity=".1" transform="matrix(.5 0 0 .5 24 28)"/>
    <path d="m418.56445 154.90625-150.71093 87.01367a20 20 0 0 0 -5.85352-2.99414v-20.92578h-12v20.94531a20 20 0 0 0 -5.85352 2.97461l-91.92382-53.07422-8 13.85742 91.91211 53.06641a20 20 0 0 0 -.13477 2.23047 20 20 0 0 0 14 19.07422v148.92578h12v-148.94531a20 20 0 0 0 14-19.05469 20 20 0 0 0 -.14844-2.22266l150.71289-87.01562z" fill="url(#linearGradient4290)" filter="url(#filter4300)" opacity=".4" transform="matrix(.5 0 0 .5 24 28)"/>
    <circle cx="152" cy="156.318" fill="#ccc" r="3.146"/>
    <path d="m98.111225 124.8873 53.888775 31.1127 83.28265-48.08326" fill="none" stroke="#f1f0e9" stroke-width="8"/>
    <circle cx="152" cy="156" fill="#f22c42" r="10"/>
    <path d="m152 136v104" fill="none" stroke="#f22c42" stroke-width="6"/>
  </g>
  <path d="m32.337942 66.494114a112 112 0 0 0 -15.585938 56.753906 112 112 0 0 0 111.999996 112 112 112 0 0 0 94.63086-52.33594z" fill="#fff" opacity=".05"/>
  <path d="m128.752 11.248014a112 112 0 0 0 -111.999996 111.999996 112 112 0 0 0 .04102 1.16992 112 112 0 0 1 111.958976-111.169916 112 112 0 0 1 111.95898 110.830076 112 112 0 0 0 .041-.83008 112 112 0 0 0 -112-111.999996z" fill="#fff" opacity=".3"/>
  <path d="m128.752 235.24801a112 112 0 0 1 -111.999996-112 112 112 0 0 1 .04102-1.16992 112 112 0 0 0 111.958976 111.16992 112 112 0 0 0 111.95898-110.83008 112 112 0 0 1 .041.83008 112 112 0 0 1 -112 112z" opacity=".2"/>
</svg>

<svg xmlns="http://www.w3.org/2000/svg" xmlns:osb="http://www.openswatchbook.org/uri/2009/osb" xmlns:xlink="http://www.w3.org/1999/xlink" width="256" height="256" version="1.1">
 <defs>
  <linearGradient id="linearGradient5606" osb:paint="solid">
   <stop id="stop5608" offset="0" style="stop-color:#000000"/>
  </linearGradient>
  <linearGradient id="linearGradient4526" osb:paint="solid">
   <stop id="stop4528" offset="0" style="stop-color:#ffffff"/>
  </linearGradient>
  <linearGradient id="linearGradient3600-4" osb:paint="gradient">
   <stop id="stop3602-7" offset="0" style="stop-color:#f4f4f4"/>
   <stop id="stop3604-6" offset="1" style="stop-color:#dbdbdb"/>
  </linearGradient>
  <filter style="color-interpolation-filters:sRGB" id="filter4278" width="1.024" height="1.024" x="-.01" y="-.01">
   <feGaussianBlur id="feGaussianBlur4280" stdDeviation="1.384"/>
  </filter>
  <linearGradient id="linearGradient4290" x1="226.84" x2="406.448" y1="429.516" y2="146.703" gradientUnits="userSpaceOnUse" xlink:href="#linearGradient4292"/>
  <linearGradient id="linearGradient4292">
   <stop id="stop4294" offset="0" style="stop-color:#000000;stop-opacity:0"/>
   <stop style="stop-color:#000000" id="stop4296" offset=".496"/>
   <stop id="stop4298" offset="1" style="stop-color:#000000;stop-opacity:0"/>
  </linearGradient>
  <filter style="color-interpolation-filters:sRGB" id="filter4300" width="1.188" height="1.196" x="-.09" y="-.1">
   <feGaussianBlur id="feGaussianBlur4302" stdDeviation="11.069"/>
  </filter>
  <linearGradient id="linearGradient11065" x1="104" x2="200" y1="44" y2="268" gradientTransform="translate(-23.247996,-32.751986)" gradientUnits="userSpaceOnUse" xlink:href="#linearGradient4239"/>
  <linearGradient id="linearGradient4239">
   <stop id="stop4241" offset="0" style="stop-color:#666666"/>
   <stop id="stop4243" offset="1" style="stop-color:#666666"/>
  </linearGradient>
  <filter style="color-interpolation-filters:sRGB" id="filter11191" width="1.024" height="1.024" x="-.01" y="-.01">
   <feGaussianBlur id="feGaussianBlur11193" stdDeviation="1.12"/>
  </filter>
  <filter style="color-interpolation-filters:sRGB" id="filter11210" width="1.096" height="1.096" x="-.05" y="-.05">
   <feGaussianBlur id="feGaussianBlur11212" stdDeviation="4.48"/>
  </filter>
 </defs>
 <circle style="opacity:0.1;filter:url(#filter11210)" cx="128.752" cy="127.248" r="112"/>
 <circle style="opacity:0.1;filter:url(#filter11191)" cx="128.752" cy="125.248" r="112"/>
 <circle style="opacity:0.1" cx="128.752" cy="123.248" r="114"/>
 <circle style="fill:url(#linearGradient11065)" cx="128.752" cy="123.248" r="112"/>
 <g style="enable-background:new" transform="translate(-23.247996,-32.751975)">
  <path d="M 418.56445,154.90625 267.85352,241.91992 A 20,20 0 0 0 262,238.92578 V 218 h -12 v 20.94531 a 20,20 0 0 0 -5.85352,2.97461 l -91.92382,-53.07422 -8,13.85742 91.91211,53.06641 A 20,20 0 0 0 236,258 20,20 0 0 0 250,277.07422 V 426 h 12 V 277.05469 A 20,20 0 0 0 276,258 a 20,20 0 0 0 -0.14844,-2.22266 l 150.71289,-87.01562 z" transform="matrix(0.5,0,0,0.5,24,28)" style="opacity:0.1;filter:url(#filter4278)"/>
  <path style="opacity:0.4;fill:url(#linearGradient4290);filter:url(#filter4300)" d="M 418.56445,154.90625 267.85352,241.91992 A 20,20 0 0 0 262,238.92578 V 218 h -12 v 20.94531 a 20,20 0 0 0 -5.85352,2.97461 l -91.92382,-53.07422 -8,13.85742 91.91211,53.06641 A 20,20 0 0 0 236,258 20,20 0 0 0 250,277.07422 V 426 h 12 V 277.05469 A 20,20 0 0 0 276,258 a 20,20 0 0 0 -0.14844,-2.22266 l 150.71289,-87.01562 z" transform="matrix(0.5,0,0,0.5,24,28)"/>
  <circle style="fill:#cccccc" cx="152" cy="156.318" r="3.146"/>
  <path d="M 98.111225,124.8873 152,156 235.28265,107.91674" style="fill:none;stroke:#f1f0e9;stroke-width:8"/>
  <circle cx="152" cy="156" r="10" style="fill:#f22c42"/>
  <path d="M 152,136 V 240" style="fill:none;stroke:#f22c42;stroke-width:6"/>
 </g>
 <path style="opacity:0.05;fill:#ffffff" d="m 32.337942,66.494114 a 112,112 0 0 0 -15.585938,56.753906 112,112 0 0 0 111.999996,112 112,112 0 0 0 94.63086,-52.33594 z"/>
 <path style="opacity:0.3;fill:#ffffff" d="M 128.752,11.248014 A 112,112 0 0 0 16.752004,123.24801 112,112 0 0 0 16.793024,124.41793 112,112 0 0 1 128.752,13.248014 112,112 0 0 1 240.71098,124.07809 a 112,112 0 0 0 0.041,-0.83008 112,112 0 0 0 -112,-111.999996 z"/>
 <path style="opacity:0.2" d="m 128.752,235.24801 a 112,112 0 0 1 -111.999996,-112 112,112 0 0 1 0.04102,-1.16992 112,112 0 0 0 111.958976,111.16992 112,112 0 0 0 111.95898,-110.83008 112,112 0 0 1 0.041,0.83008 112,112 0 0 1 -112,112 z"/>
</svg>
